!!!COM: Haydn, Franz Joseph
!!!OTL: String Quartet in E-flat Major
!!!OPS: Opus 1
!!!ONM: No. 0
!!!OMD: Presto
!!!OMV: 5
!!!SCT: H II:6
!!!SCA: Thematisch-bibliographisches Werkevererzeichnis (A. van Hoboken)
!!!YOR: Bremner Edition, 1772
!!!ENC: Frances Bennion
!!!CDT: 1732/3/31/-1809/5/31/
!!!CNT: Oesterreich
!!!YEC: Copyright (c) 1994, 2000 Center for Computer Assisted Research in the Humanities
!!!YEM: Rights to all derivative editions reserved.
!!!YEM: Refer to licensing agreement for further details.
!!!YEN: United States of America
**kern	**kern	**kern	**kern
*k[b-e-a-]	*k[b-e-a-]	*k[b-e-a-]	*k[b-e-a-]
*E-:	*E-:	*E-:	*E-:
*clefF4	*clefC3	*clefF	*clefF
*M2/4	*M2/4	*M2/4	*M2/4
8r	8r	8r	4G 4e-
8E-	8e-	8e- 8G	.
4E-	4e-	4G 4e-	8r
.	.	.	8b-
=2	=2	=2	=2
2r	2r	2r	16a-
.	.	.	16g
.	.	.	16f
.	.	.	16e-
.	.	.	16d
.	.	.	16e-
.	.	.	16f
.	.	.	16g
=3	=3	=3	=3
8r	8r	8r	4a-
8BB-	8B-	8f 8B-	.
4BB-	4B-	4B- 4f	8r
.	.	.	8cc
=4	=4	=4	=4
2r	2r	2r	16b-
.	.	.	16a-
.	.	.	16g
.	.	.	16f
.	.	.	16e-
.	.	.	16d
.	.	.	16e-
.	.	.	16f
=5	=5	=5	=5
8r	8r	8r	4g
8E-	8G	8e-	.
8E-	8G	8e-	8r
8GG	8G	8G	8B-
=6	=6	=6	=6
4AA-	4A-	4A-	16c
.	.	.	16B-
.	.	.	16A-
.	.	.	16B-
4r	4r	4r	16c
.	.	.	16d
.	.	.	16e-
.	.	.	16f
=7	=7	=7	=7
4GG	4B-	4G 4e-	16g
.	.	.	16a-
.	.	.	16b-
.	.	.	16cc
4r	4r	4r	16dd
.	.	.	16ee-
.	.	.	16dd
.	.	.	16ee-
=8	=8	=8	=8
8AA-	8A-	8A-	8A-
8r	8r	8r	8r
8BB-	8B-	8B-	8B-
8r	8r	8r	8r
=9	=9	=9	=9
4E-	4e-	4e-	4e-
4r	4r	4r	8r
.	.	.	16bb-
.	.	.	16aa-
=10	=10	=10	=10
4E-	[2e-	2g	16gg
.	.	.	16ee-
.	.	.	16dd
.	.	.	16cc
8G	.	.	16b-
.	.	.	16a-
8B-	.	.	16g
.	.	.	16f
=11	=11	=11	=11
8e-	2e-]	16g	4e-
.	.	16b-	.
8B-	.	16g	.
.	.	16b-	.
8G	.	16e-	8r
.	.	16b-	.
8E-	.	16e-	16bb-
.	.	16b-	16gg
=12	=12	=12	=12
4BB-	[2d	2f	16ff
.	.	.	16dd
.	.	.	16cc
.	.	.	16b-
8D	.	.	16a
.	.	.	16g
8F	.	.	16f
.	.	.	16e-
=13	=13	=13	=13
8B-	2d]	16d	4d
.	.	16b-	.
8F	.	16d	.
.	.	16b-	.
8D	.	16f	8r
.	.	16b-	.
8BB-	.	16f	16bb-
.	.	16b-	16ff
=14	=14	=14	=14
4F	4c	4a	16ee-
.	.	.	16cc
.	.	.	16a
.	.	.	16f
4F	4B-	4b-	16dd
.	.	.	16b-
.	.	.	16a
.	.	.	16b-
=15	=15	=15	=15
4F	4A	4cc	16ee-
.	.	.	16cc
.	.	.	16a
.	.	.	16f
4F	4B-	4dd	16dd
.	.	.	16b-
.	.	.	16a
.	.	.	16b-
=16	=16	=16	=16
8F	2F	8ee-	16ee-
.	.	.	16cc
8F	.	8cc	16a
.	.	.	16f
8F	.	8dd	16dd
.	.	.	16b-
8F	.	8b-	16f
.	.	.	16d
=17	=17	=17	=17
8F	8F	8a	8cc
8FF	8f	8f	8f
4r	4r	4r	8r
.	.	.	16ff
.	.	.	16bb-
=18	=18	=18	=18
2r	2r	2r	16bb-
.	.	.	16aa
.	.	.	16ccc
.	.	.	16bb-
.	.	.	16ddd
.	.	.	16bb-
.	.	.	16aa
.	.	.	16bb-
=19	=19	=19	=19
4F	4cc	4a	4ee-
8B-	8b-	8b-	8dd
8r	8r	8r	16ff
.	.	.	16bb-
=20	=20	=20	=20
2r	2r	2r	16bb-
.	.	.	16aa
.	.	.	16ccc
.	.	.	16bb-
.	.	.	16ddd
.	.	.	16bb-
.	.	.	16aa
.	.	.	16bb-
=21	=21	=21	=21
4F	4cc	4a	4ee-
8B-	8b-	8b-	8dd
8BB-	8d	[8b-	8ff
=22	=22	=22	=22
8E-	8e-	8b-]	16gg
.	.	.	16ee-
8e-	8ee-	[8cc	16dd
.	.	.	16cc
8d	8dd	8cc]	16ff
.	.	.	16dd
8D	8d	8b-	16cc
.	.	.	16b-
=23	=23	=23	=23
8C	8c	8b-	16ee-
.	.	.	16dd
8c	8cc	16cc	16cc
.	.	16dd	16b-
8F	8f	8ee-	16a
.	.	.	16g
8A	8a	8c	16f
.	.	.	16e-
=24	=24	=24	=24
8B-	8b-	8d	16d
.	.	.	16f
8D	8d	8d	16b-
.	.	.	16d
8E-	8e-	8e-	8e-
8F	8f	8f	8f
=25	=25	=25	=25
8BB-	8B-	4B-	4B-
8B-	8b-	.	.
4BB-	4B-	4r	4r
=26	=26	=26	=26
8BB-	4b- 4d	4b- 4d	8r
8BB-	.	.	8b- 8d
8BB-	4r	8r	4b- 4d
8BB-	.	8bb-	.
=27	=27	=27	=27
8BB-	4.r	16aa-	2dd
.	.	16gg	.
8BB-	.	16ff	.
.	.	16ee-	.
8BB-	.	16dd	.
.	.	16cc	.
8BB-	8B-	16b-	.
.	.	16a-	.
=28	=28	=28	=28
8BB-	16e-	4g	4ee-
.	16f	.	.
8BB-	16g	.	.
.	16a-	.	.
8BB-	16b-	4r	8r
.	16cc	.	.
8BB-	16dd	.	8B-
.	16ee-	.	.
=29	=29	=29	=29
8BB-	8dd	16a-	2d
.	.	16g	.
8BB-	4r	16f	.
.	.	16e-	.
8BB-	.	16d	.
.	.	16c	.
8BB-	8B-	16B-	.
.	.	16A-	.
=30	=30	=30	=30
8BB-	16E-	4G	4e-
.	16F	.	.
8BB-	16G	.	.
.	16A-	.	.
8BB-	16B-	4r	8r
.	16c	.	.
8BB-	16d	.	8cc
.	16e-	.	.
=31	=31	=31	=31
16BB-	8d	2f	2aa-
16C	.	.	.
16D	4r	.	.
16E-	.	.	.
16F	.	.	.
16G	.	.	.
16A-	8d	.	.
16B-	.	.	.
=32	=32	=32	=32
8E-	16e-	16g	4gg
.	16f	16a-	.
8E-	16g	16b-	.
.	16a-	16cc	.
8E-	16b-	16dd	8r
.	16cc	16ee-	.
8E-	16dd	16ff	8ee-
.	16ee-	16gg	.
=33	=33	=33	=33
8GG	16b-	4ee-	16ddd-
.	16a-	.	16ccc
8GG	16g	.	16bb-
.	16f	.	16aa-
8GG	16e-	4r	16gg
.	16d-	.	16ff
8GG	16c	.	16ee-
.	16B-	.	16dd-
=34	=34	=34	=34
8AA-	4A-	16A-	4cc
.	.	16B-	.
8AA-	.	16c	.
.	.	16d-	.
8AA-	4r	16e-	4r
.	.	16f	.
8AA-	.	16g	.
.	.	16a-	.
=35	=35	=35	=35
8A-	8A-	4A-	16e-
.	.	.	16a-
8A-	8cc	.	16cc
.	.	.	16ee-
8A-	8cc	4r	16e-
.	.	.	16a-
8A-	8A-	.	16cc
.	.	.	16ee-
=36	=36	=36	=36
8G	8G	4b- 4e- 4G	16e-
.	.	.	16g
8G	8b-	.	16b-
.	.	.	16ee-
8G	8b-	4r	16e-
.	.	.	16g
8G	8g	.	16b-
.	.	.	16ee-
=37	=37	=37	=37
8F	8f	8b-	16a-
.	.	.	16b-
8E-	8e-	8cc	16g
.	.	.	16b-
8D	8d	8dd	16f
.	.	.	16b-
8C	8c	8ee-	16e-
.	.	.	16b-
=38	=38	=38	=38
4BB-	4B-	4b-	16d
.	.	.	16b-
.	.	.	16e-
.	.	.	16b-
4r	4r	4r	16f
.	.	.	16b-
.	.	.	16g
.	.	.	16b-
=39	=39	=39	=39
8F	8f	8b-	16a-
.	.	.	16b-
8E-	8e-	8cc	16g
.	.	.	16b-
8D	8d	8dd	16f
.	.	.	16b-
8C	8c	8ee-	16e-
.	.	.	16b-
=40	=40	=40	=40
4BB-	4B-	4b-	16d
.	.	.	16b-
.	.	.	16e-
.	.	.	16b-
4r	4r	4r	16f
.	.	.	16b-
.	.	.	16g
.	.	.	16b-
=41	=41	=41	=41
8F	8f	8b-	16a-
.	.	.	16b-
8E-	8e-	8cc	16g
.	.	.	16b-
8D	8d	8dd	16f
.	.	.	16b-
8C	8c	8ee-	16e-
.	.	.	16b-
=42	=42	=42	=42
4BB-	4B-	4B-	4B-
4r	4r	4r	4r
=43	=43	=43	=43
8r	8r	8r	4G 4e-
8E-	8e-	8e- 8G	.
4E-	4e-	4G 4e-	8r
.	.	.	8b-
=44	=44	=44	=44
2r	2r	2r	16a-
.	.	.	16g
.	.	.	16f
.	.	.	16e-
.	.	.	16d
.	.	.	16e-
.	.	.	16f
.	.	.	16g
=45	=45	=45	=45
8r	8r	8r	4a-
8BB-	8B-	8f 8B-	.
4BB-	4B-	4B- 4f	8r
.	.	.	8cc
=46	=46	=46	=46
2r	2r	2r	16b-
.	.	.	16a-
.	.	.	16g
.	.	.	16f
.	.	.	16e-
.	.	.	16d
.	.	.	16e-
.	.	.	16f
=47	=47	=47	=47
8r	8r	8r	4g
8E-	8G	8e-	.
8E-	8G	8e-	8r
8GG	8G	8G	8B-
=48	=48	=48	=48
4AA-	4A-	4A-	16c
.	.	.	16B-
.	.	.	16A-
.	.	.	16B-
4r	4r	4r	16c
.	.	.	16d
.	.	.	16e-
.	.	.	16f
=49	=49	=49	=49
4E-	4G	4B-	16g
.	.	.	16a-
.	.	.	16b-
.	.	.	16cc
4r	4r	4r	16dd
.	.	.	16ee-
.	.	.	16dd
.	.	.	16ee-
=50	=50	=50	=50
8BB-	8B-	8f	8a-
8r	8r	8r	8r
8BB-	8B-	8e-	8g
8r	8r	8r	8r
=51	=51	=51	=51
4BB-	4B-	4d	4f
4r	4r	4r	8r
.	.	.	16bb-
.	.	.	16aa-
=52	=52	=52	=52
2r	2r	2r	16gg
.	.	.	16ff
.	.	.	16ee
.	.	.	16dd-
.	.	.	16cc
.	.	.	16b-
.	.	.	16a-
.	.	.	16g
=53	=53	=53	=53
8r	8r	8r	4f
8F	8A-	8f 8A-	.
4F	4A-	4A- 4f	8r
.	.	.	16aa-
.	.	.	16gg
=54	=54	=54	=54
2r	2r	2r	16ff
.	.	.	16ee-
.	.	.	16dd
.	.	.	16cc
.	.	.	16b-
.	.	.	16a-
.	.	.	16g
.	.	.	16f
=55	=55	=55	=55
8r	8r	8r	4e-
8E-	8G	8G 8e-	.
8E-	8G	8G 8e-	8r
8E-	8g	8G 8e-	16bb-
.	.	.	16gg
=56	=56	=56	=56
4BB-	4f	4d	16aa-
.	.	.	16ff
.	.	.	16dd
.	.	.	16b-
4BB-	4e-	4e-	16gg
.	.	.	16bb-
.	.	.	16gg
.	.	.	16bb-
=57	=57	=57	=57
4BB-	4d	4f	16aa-
.	.	.	16ff
.	.	.	16dd
.	.	.	16b-
4BB-	4e-	4g	16gg
.	.	.	16bb-
.	.	.	16gg
.	.	.	16bb-
=58	=58	=58	=58
8BB-	2B-	8a-	16aa-
.	.	.	16ff
8BB-	.	8f	16dd
.	.	.	16b-
8BB-	.	8g	16ee-
.	.	.	16b-
8BB-	.	8e-	16g
.	.	.	16e-
=59	=59	=59	=59
8BB-	4B-	8d	8f
8B-	.	8B-	8B-
4r	4r	4r	8r
.	.	.	16b-
.	.	.	16ee-
=60	=60	=60	=60
2r	2r	2r	16ee-
.	.	.	16dd
.	.	.	16ff
.	.	.	16ee-
.	.	.	16gg
.	.	.	16ee-
.	.	.	16dd
.	.	.	16ee-
=61	=61	=61	=61
4BB-	4d	4f	4a-
8E-	8e-	8e-	8g
8r	8r	8r	16b-
.	.	.	16ee-
=62	=62	=62	=62
2r	2r	2r	16ee-
.	.	.	16dd
.	.	.	16ff
.	.	.	16ee-
.	.	.	16gg
.	.	.	16ee-
.	.	.	16dd
.	.	.	16ee-
=63	=63	=63	=63
4BB-	4d	4f	4a-
8E-	8e-	8e-	8g
8GG	8G	[8e-	8bb-
=64	=64	=64	=64
8AA-	8A-	8e-]	16ccc
.	.	.	16aa-
8A-	8a-	[8f	16gg
.	.	.	16ff
8G	8g	8f]	16bb-
.	.	.	16gg
8G	8g	8e-	16ff
.	.	.	16ee-
=65	=65	=65	=65
8F	8f	8f	16aa-
.	.	.	16gg
8F	8f	16f	16ff
.	.	16g	16ee-
8BB-	8B-	8a-	16dd
.	.	.	16cc
8D	8d	8f	16b-
.	.	.	16a-
=66	=66	=66	=66
8E-	8e-	8g	16g
.	.	.	16b-
8G	8g	8g	16ee-
.	.	.	16g
8A-	8a-	8a-	8a-
8B-	8b-	8b-	8b-
=67	=67	=67	=67
8E-	8e-	4e-	4e-
8BB-	8B-	.	.
4EE-	8E-	4r	8r
.	8r	.	8g 8B-
=68	=68	=68	=68
8r	8r	8r	8a- 8B-
8B-	8f	8dd	8r
4B-	4f	4dd	8a- 8B-
.	.	.	8r
=69	=69	=69	=69
8r	8r	8r	4B- 4g
8E-	8g	8ee-	.
4E-	4g	4ee-	8r
.	.	.	8g 8B-
=70	=70	=70	=70
8r	8r	8r	4A- 4f
8BB-	8B-	8d	.
4BB-	4B-	4d	8r
.	.	.	8A- 8d
=71	=71	=71	=71
8r	8r	8r	4G 4e-
8E-	8e-	8e-	.
8E-	8B-	8g	4b- 4gg 4e-
8E-	8G	8b-	.
=72	=72	=72	=72
8E-	8E-	8ee-	4b- 4gg 4e-
8EE-	8G	8b-	.
8EE-	8B-	8g	4b- 4gg 4e-
8EE-	8e-	8e-	.
=73	=73	=73	=73
4E-	4E-	4b- 4e- 4G	4gg 4e- 4b-
4r	4r	4r	4r
==	==	==	==
*-	*-	*-	*-
!!!RWG1: This file contains only pitch and duration data.
!!!RWG2: Transposing instruments are not transposed.
!!!RWG3: Spines may have incompatible meters.
!!!RWG4: Durations of rests and tied notes may be interpreted.
!!!RWG: Key is interpreted using the Humdrum key tool.
!!!GTL: 10 Divertimentos
!!!AFT: stage1
!!!END: 1997/04/15
!!!KEY: 3754068977
!!!EMD: Converted from MuseData to Humdrum Dec 16, 2000, by Andreas Kornstaedt using muse2kern.
!!!EMD: Manual editing by Craig Sapp, Nov 2001
